icons/upload.svg

<?xml version="1.0" standalone="no"?><!-- Generator: Gravit.io --><svg xmlns="http://www.w3.org/2000/svg" xmlns:xlink="http://www.w3.org/1999/xlink" width="96" height="96"><path d=" M 64 68.25 C 62.900000000000006 68.25 61.900000000000006 67.85 61.20000000000001 67.05 C 60.400000000000006 66.35 60.00000000000001 65.35 60.00000000000001 64.25 C 60.00000000000001 63.15 60.400000000000006 62.15 61.20000000000001 61.45 C 61.900000000000006 60.65 62.9 60.25 64 60.25 L 72 60.25 L 72 20.25 L 24 20.250000000000004 L 24 60.25000000000001 L 32 60.25000000000001 C 33.1 60.25000000000001 34.10000000000001 60.650000000000006 34.800000000000004 61.45000000000001 C 35.60000000000001 62.150000000000006 36.00000000000001 63.150000000000006 36.00000000000001 64.25 C 36.00000000000001 65.35000000000001 35.60000000000001 66.35 34.800000000000004 67.05 C 34.10000000000001 67.85 33.10000000000001 68.25 32.00000000000001 68.25 L 24 68.25 C 21.900000000000006 68.25 19.799999999999997 67.45 18.299999999999997 65.95000000000002 C 16.799999999999997 64.45000000000002 16 62.35000000000001 16 60.25000000000001 L 16 20.250000000000004 C 16 18.150000000000006 16.799999999999997 16.050000000000004 18.299999999999997 14.550000000000006 C 19.799999999999997 13.050000000000006 21.900000000000006 12.250000000000005 24 12.250000000000004 L 72 12.250000000000002 C 74.1 12.250000000000002 76.2 13.050000000000002 77.7 14.550000000000002 C 79.2 16.050000000000004 80 18.150000000000002 80 20.25 L 80 60.25 C 80 62.35 79.2 64.45 77.7 65.95 C 76.2 67.45 74.10000000000001 68.25 72 68.25 L 64 68.25 Z  M 52.00000000000001 49.373076923080006 L 52.000000000000014 79.75 C 52.000000000000014 80.85 51.600000000000016 81.85 50.80000000000001 82.55 C 50.100000000000016 83.35 49.100000000000016 83.75 48.000000000000014 83.75 C 46.90000000000001 83.75 45.90000000000001 83.35 45.20000000000002 82.55 C 44.40000000000001 81.85 44.000000000000014 80.85 44.000000000000014 79.75 L 44.00000000000001 49.373076923080006 L 42.800000000000004 50.55 C 42.10000000000001 51.349999999999994 41.10000000000001 51.75 40.00000000000001 51.75 C 38.900000000000006 51.75 37.900000000000006 51.349999999999994 37.20000000000001 50.55 C 36.400000000000006 49.849999999999994 36.00000000000001 48.849999999999994 36.00000000000001 47.75 C 36.00000000000001 46.650000000000006 36.400000000000006 45.650000000000006 37.20000000000001 44.95 L 44.300000000000004 37.75 Q 46.4418782806429 36.25 48.00000000000001 36.25 Q 49.55812171935712 36.25 51.70000000000001 37.75 L 58.800000000000004 44.95 C 59.60000000000001 45.650000000000006 60.00000000000001 46.650000000000006 60.00000000000001 47.75 C 60.00000000000001 48.849999999999994 59.60000000000001 49.849999999999994 58.800000000000004 50.55 C 58.10000000000001 51.349999999999994 57.10000000000001 51.75 56.00000000000001 51.75 C 54.900000000000006 51.75 53.900000000000006 51.349999999999994 53.20000000000001 50.55 L 52.00000000000001 49.373076923080006 Z " fill-rule="evenodd" fill="#454545" stroke="none"/><mask id="_mask_nEOoBhZr3kayFRO4yIzyhgA2UaegExKP"><path d=" M 64 68.25 C 62.900000000000006 68.25 61.900000000000006 67.85 61.20000000000001 67.05 C 60.400000000000006 66.35 60.00000000000001 65.35 60.00000000000001 64.25 C 60.00000000000001 63.15 60.400000000000006 62.15 61.20000000000001 61.45 C 61.900000000000006 60.65 62.9 60.25 64 60.25 L 72 60.25 L 72 20.25 L 24 20.250000000000004 L 24 60.25000000000001 L 32 60.25000000000001 C 33.1 60.25000000000001 34.10000000000001 60.650000000000006 34.800000000000004 61.45000000000001 C 35.60000000000001 62.150000000000006 36.00000000000001 63.150000000000006 36.00000000000001 64.25 C 36.00000000000001 65.35000000000001 35.60000000000001 66.35 34.800000000000004 67.05 C 34.10000000000001 67.85 33.10000000000001 68.25 32.00000000000001 68.25 L 24 68.25 C 21.900000000000006 68.25 19.799999999999997 67.45 18.299999999999997 65.95000000000002 C 16.799999999999997 64.45000000000002 16 62.35000000000001 16 60.25000000000001 L 16 20.250000000000004 C 16 18.150000000000006 16.799999999999997 16.050000000000004 18.299999999999997 14.550000000000006 C 19.799999999999997 13.050000000000006 21.900000000000006 12.250000000000005 24 12.250000000000004 L 72 12.250000000000002 C 74.1 12.250000000000002 76.2 13.050000000000002 77.7 14.550000000000002 C 79.2 16.050000000000004 80 18.150000000000002 80 20.25 L 80 60.25 C 80 62.35 79.2 64.45 77.7 65.95 C 76.2 67.45 74.10000000000001 68.25 72 68.25 L 64 68.25 Z  M 52.00000000000001 49.373076923080006 L 52.000000000000014 79.75 C 52.000000000000014 80.85 51.600000000000016 81.85 50.80000000000001 82.55 C 50.100000000000016 83.35 49.100000000000016 83.75 48.000000000000014 83.75 C 46.90000000000001 83.75 45.90000000000001 83.35 45.20000000000002 82.55 C 44.40000000000001 81.85 44.000000000000014 80.85 44.000000000000014 79.75 L 44.00000000000001 49.373076923080006 L 42.800000000000004 50.55 C 42.10000000000001 51.349999999999994 41.10000000000001 51.75 40.00000000000001 51.75 C 38.900000000000006 51.75 37.900000000000006 51.349999999999994 37.20000000000001 50.55 C 36.400000000000006 49.849999999999994 36.00000000000001 48.849999999999994 36.00000000000001 47.75 C 36.00000000000001 46.650000000000006 36.400000000000006 45.650000000000006 37.20000000000001 44.95 L 44.300000000000004 37.75 Q 46.4418782806429 36.25 48.00000000000001 36.25 Q 49.55812171935712 36.25 51.70000000000001 37.75 L 58.800000000000004 44.95 C 59.60000000000001 45.650000000000006 60.00000000000001 46.650000000000006 60.00000000000001 47.75 C 60.00000000000001 48.849999999999994 59.60000000000001 49.849999999999994 58.800000000000004 50.55 C 58.10000000000001 51.349999999999994 57.10000000000001 51.75 56.00000000000001 51.75 C 54.900000000000006 51.75 53.900000000000006 51.349999999999994 53.20000000000001 50.55 L 52.00000000000001 49.373076923080006 Z " fill-rule="evenodd" fill="white" stroke="none"/></mask><path d=" M 64 68.25 C 62.900000000000006 68.25 61.900000000000006 67.85 61.20000000000001 67.05 C 60.400000000000006 66.35 60.00000000000001 65.35 60.00000000000001 64.25 C 60.00000000000001 63.15 60.400000000000006 62.15 61.20000000000001 61.45 C 61.900000000000006 60.65 62.9 60.25 64 60.25 L 72 60.25 L 72 20.25 L 24 20.250000000000004 L 24 60.25000000000001 L 32 60.25000000000001 C 33.1 60.25000000000001 34.10000000000001 60.650000000000006 34.800000000000004 61.45000000000001 C 35.60000000000001 62.150000000000006 36.00000000000001 63.150000000000006 36.00000000000001 64.25 C 36.00000000000001 65.35000000000001 35.60000000000001 66.35 34.800000000000004 67.05 C 34.10000000000001 67.85 33.10000000000001 68.25 32.00000000000001 68.25 L 24 68.25 C 21.900000000000006 68.25 19.799999999999997 67.45 18.299999999999997 65.95000000000002 C 16.799999999999997 64.45000000000002 16 62.35000000000001 16 60.25000000000001 L 16 20.250000000000004 C 16 18.150000000000006 16.799999999999997 16.050000000000004 18.299999999999997 14.550000000000006 C 19.799999999999997 13.050000000000006 21.900000000000006 12.250000000000005 24 12.250000000000004 L 72 12.250000000000002 C 74.1 12.250000000000002 76.2 13.050000000000002 77.7 14.550000000000002 C 79.2 16.050000000000004 80 18.150000000000002 80 20.25 L 80 60.25 C 80 62.35 79.2 64.45 77.7 65.95 C 76.2 67.45 74.10000000000001 68.25 72 68.25 L 64 68.25 Z  M 52.00000000000001 49.373076923080006 L 52.000000000000014 79.75 C 52.000000000000014 80.85 51.600000000000016 81.85 50.80000000000001 82.55 C 50.100000000000016 83.35 49.100000000000016 83.75 48.000000000000014 83.75 C 46.90000000000001 83.75 45.90000000000001 83.35 45.20000000000002 82.55 C 44.40000000000001 81.85 44.000000000000014 80.85 44.000000000000014 79.75 L 44.00000000000001 49.373076923080006 L 42.800000000000004 50.55 C 42.10000000000001 51.349999999999994 41.10000000000001 51.75 40.00000000000001 51.75 C 38.900000000000006 51.75 37.900000000000006 51.349999999999994 37.20000000000001 50.55 C 36.400000000000006 49.849999999999994 36.00000000000001 48.849999999999994 36.00000000000001 47.75 C 36.00000000000001 46.650000000000006 36.400000000000006 45.650000000000006 37.20000000000001 44.95 L 44.300000000000004 37.75 Q 46.4418782806429 36.25 48.00000000000001 36.25 Q 49.55812171935712 36.25 51.70000000000001 37.75 L 58.800000000000004 44.95 C 59.60000000000001 45.650000000000006 60.00000000000001 46.650000000000006 60.00000000000001 47.75 C 60.00000000000001 48.849999999999994 59.60000000000001 49.849999999999994 58.800000000000004 50.55 C 58.10000000000001 51.349999999999994 57.10000000000001 51.75 56.00000000000001 51.75 C 54.900000000000006 51.75 53.900000000000006 51.349999999999994 53.20000000000001 50.55 L 52.00000000000001 49.373076923080006 Z " fill-rule="evenodd" fill="none" stroke="none" stroke-width="16" mask="url(#_mask_nEOoBhZr3kayFRO4yIzyhgA2UaegExKP)"/></svg>

<svg xmlns="http://www.w3.org/2000/svg" width="96" height="96"><path d="M64 68.25c-1.1 0-2.1-.4-2.8-1.2-.8-.7-1.2-1.7-1.2-2.8 0-1.1.4-2.1 1.2-2.8.7-.8 1.7-1.2 2.8-1.2h8v-40H24v40h8c1.1 0 2.1.4 2.8 1.2.8.7 1.2 1.7 1.2 2.8 0 1.1-.4 2.1-1.2 2.8-.7.8-1.7 1.2-2.8 1.2h-8c-2.1 0-4.2-.8-5.7-2.3-1.5-1.5-2.3-3.6-2.3-5.7v-40c0-2.1.8-4.2 2.3-5.7 1.5-1.5 3.6-2.3 5.7-2.3h48c2.1 0 4.2.8 5.7 2.3 1.5 1.5 2.3 3.6 2.3 5.7v40c0 2.1-.8 4.2-2.3 5.7-1.5 1.5-3.6 2.3-5.7 2.3h-8zM52 49.373V79.75c0 1.1-.4 2.1-1.2 2.8-.7.8-1.7 1.2-2.8 1.2-1.1 0-2.1-.4-2.8-1.2-.8-.7-1.2-1.7-1.2-2.8V49.373l-1.2 1.177c-.7.8-1.7 1.2-2.8 1.2-1.1 0-2.1-.4-2.8-1.2-.8-.7-1.2-1.7-1.2-2.8 0-1.1.4-2.1 1.2-2.8l7.1-7.2q2.142-1.5 3.7-1.5 1.558 0 3.7 1.5l7.1 7.2c.8.7 1.2 1.7 1.2 2.8 0 1.1-.4 2.1-1.2 2.8-.7.8-1.7 1.2-2.8 1.2-1.1 0-2.1-.4-2.8-1.2L52 49.373z" fill-rule="evenodd" fill="#454545"/></svg>
